recipes/onenote/icon.svg

<svg viewBox="0 0 2745 2745" xmlns="http://www.w3.org/2000/svg" xml:space="preserve" style="fill-rule:evenodd;clip-rule:evenodd;stroke-linejoin:round;stroke-miterlimit:2"><path d="M2106.5 2553.33H755.212c-64.55 0-116.879-52.32-116.879-116.88V116.879C638.333 52.328 690.662 0 755.212 0H2627.95c64.56 0 116.88 52.328 116.88 116.879v521.454L2106.5 2553.33z" style="fill:#ca64ea;fill-rule:nonzero" transform="translate(0 96)"/><path d="m2744.83 1276.67-319.16 191.5-319.17-191.5V638.333h638.33v638.337z" style="fill:#ae4bd5;fill-rule:nonzero" transform="translate(0 96)"/><path d="m2744.83 1915-319.16 191.5L2106.5 1915v-638.33h638.33V1915z" style="fill:#9332bf;fill-rule:nonzero" transform="translate(0 96)"/><path d="M2106.5 1915h638.33v518.65c0 66.1-53.58 119.68-119.69 119.68H2106.5V1915z" style="fill:#7719aa;fill-rule:nonzero" transform="translate(0 96)"/><path d="M1414.99 510.667H638.334V2106.5h776.656c64.54-.21 116.8-52.47 117.01-117.01V627.673c-.21-64.533-52.47-116.796-117.01-117.006z" style="fill-opacity:.2;fill-rule:nonzero" transform="translate(0 96)"/><path d="M1351.16 574.5H638.333v1595.83h712.827c64.53-.21 116.8-52.47 117.01-117V691.507c-.21-64.534-52.48-116.797-117.01-117.007z" style="fill-opacity:.2;fill-rule:nonzero" transform="translate(0 96)"/><path d="M1351.16 574.5H638.333v1468.17h712.827c64.53-.21 116.8-52.48 117.01-117.01V691.507c-.21-64.534-52.48-116.797-117.01-117.007z" style="fill-opacity:.5;fill-rule:nonzero" transform="translate(0 96)"/><path d="M1287.33 574.5H638.333v1468.17h648.997c64.53-.21 116.79-52.48 117-117.01V691.507c-.21-64.534-52.47-116.797-117-117.007z" style="fill-opacity:.5;fill-rule:nonzero" transform="translate(0 96)"/><path d="M117.007 574.5H1287.33c64.62 0 117 52.386 117 117.007V1861.83c0 64.62-52.38 117-117 117H117.007C52.386 1978.83 0 1926.45 0 1861.83V691.507C0 626.886 52.386 574.5 117.007 574.5z" style="fill:url(#a);fill-rule:nonzero" transform="translate(0 96)"/><path d="M384.66 896.348h158.626l311.698 504.282c14.171 22.6 24.81 40.79 31.917 54.58h2.043a768.082 768.082 0 0 1-4.596-103.41V896.348h135.332v760.642H871.197l-323.38-518.27a403.246 403.246 0 0 1-28.853-53.55h-2.553c3.26 37.74 4.602 75.62 4.021 113.49v458.33H384.66V896.348z" style="fill:#fff;fill-rule:nonzero" transform="translate(0 96)"/><defs><linearGradient id="a" x1="0" y1="0" x2="1" y2="0" gradientUnits="userSpaceOnUse" gradientTransform="scale(1832.752) rotate(59.999 -.162 .247)"><stop offset="0" style="stop-color:#8324b3;stop-opacity:1"/><stop offset=".5" style="stop-color:#7a1bac;stop-opacity:1"/><stop offset="1" style="stop-color:#621197;stop-opacity:1"/></linearGradient></defs></svg>

<?xml version="1.0" encoding="UTF-8" standalone="no"?>
<!DOCTYPE svg PUBLIC "-//W3C//DTD SVG 1.1//EN" "http://www.w3.org/Graphics/SVG/1.1/DTD/svg11.dtd">
<svg width="100%" height="100%" viewBox="0 0 2745 2745" version="1.1" xmlns="http://www.w3.org/2000/svg" xmlns:xlink="http://www.w3.org/1999/xlink" xml:space="preserve" xmlns:serif="http://www.serif.com/" style="fill-rule:evenodd;clip-rule:evenodd;stroke-linejoin:round;stroke-miterlimit:2;">
    <g transform="matrix(1,0,0,1,0,96)">
        <path d="M2106.5,2553.33L755.212,2553.33C690.662,2553.33 638.333,2501.01 638.333,2436.45L638.333,116.879C638.333,52.328 690.662,0 755.212,0L2627.95,0C2692.51,0 2744.83,52.328 2744.83,116.879L2744.83,638.333L2106.5,2553.33Z" style="fill:rgb(202,100,234);fill-rule:nonzero;"/>
    </g>
    <g transform="matrix(1,0,0,1,0,96)">
        <path d="M2744.83,1276.67L2425.67,1468.17L2106.5,1276.67L2106.5,638.333L2744.83,638.333L2744.83,1276.67L2744.83,1276.67Z" style="fill:rgb(174,75,213);fill-rule:nonzero;"/>
    </g>
    <g transform="matrix(1,0,0,1,0,96)">
        <path d="M2744.83,1915L2425.67,2106.5L2106.5,1915L2106.5,1276.67L2744.83,1276.67L2744.83,1915Z" style="fill:rgb(147,50,191);fill-rule:nonzero;"/>
    </g>
    <g transform="matrix(1,0,0,1,0,96)">
        <path d="M2106.5,1915L2744.83,1915L2744.83,2433.65C2744.83,2499.75 2691.25,2553.33 2625.14,2553.33L2106.5,2553.33L2106.5,1915Z" style="fill:rgb(119,25,170);fill-rule:nonzero;"/>
    </g>
    <g transform="matrix(1,0,0,1,0,96)">
        <path d="M1414.99,510.667L638.334,510.667L638.334,2106.5L1414.99,2106.5C1479.53,2106.29 1531.79,2054.03 1532,1989.49L1532,627.673C1531.79,563.14 1479.53,510.877 1414.99,510.667Z" style="fill-opacity:0.2;fill-rule:nonzero;"/>
    </g>
    <g transform="matrix(1,0,0,1,0,96)">
        <path d="M1351.16,574.5L638.333,574.5L638.333,2170.33L1351.16,2170.33C1415.69,2170.12 1467.96,2117.86 1468.17,2053.33L1468.17,691.507C1467.96,626.973 1415.69,574.71 1351.16,574.5Z" style="fill-opacity:0.2;fill-rule:nonzero;"/>
    </g>
    <g transform="matrix(1,0,0,1,0,96)">
        <path d="M1351.16,574.5L638.333,574.5L638.333,2042.67L1351.16,2042.67C1415.69,2042.46 1467.96,1990.19 1468.17,1925.66L1468.17,691.507C1467.96,626.973 1415.69,574.71 1351.16,574.5Z" style="fill-opacity:0.5;fill-rule:nonzero;"/>
    </g>
    <g transform="matrix(1,0,0,1,0,96)">
        <path d="M1287.33,574.5L638.333,574.5L638.333,2042.67L1287.33,2042.67C1351.86,2042.46 1404.12,1990.19 1404.33,1925.66L1404.33,691.507C1404.12,626.973 1351.86,574.71 1287.33,574.5Z" style="fill-opacity:0.5;fill-rule:nonzero;"/>
    </g>
    <g transform="matrix(1,0,0,1,0,96)">
        <path d="M117.007,574.5L1287.33,574.5C1351.95,574.5 1404.33,626.886 1404.33,691.507L1404.33,1861.83C1404.33,1926.45 1351.95,1978.83 1287.33,1978.83L117.007,1978.83C52.386,1978.83 0,1926.45 0,1861.83L0,691.507C0,626.886 52.386,574.5 117.007,574.5Z" style="fill:url(#_Linear1);fill-rule:nonzero;"/>
    </g>
    <g transform="matrix(1,0,0,1,0,96)">
        <path d="M384.66,896.348L543.286,896.348L854.984,1400.63C869.155,1423.23 879.794,1441.42 886.901,1455.21L888.944,1455.21C885.088,1420.88 883.553,1386.33 884.348,1351.8L884.348,896.348L1019.68,896.348L1019.68,1656.99L871.197,1656.99L547.817,1138.72C536.864,1121.62 527.219,1103.72 518.964,1085.17L516.411,1085.17C519.671,1122.91 521.013,1160.79 520.432,1198.66L520.432,1656.99L384.66,1656.99L384.66,896.348Z" style="fill:white;fill-rule:nonzero;"/>
    </g>
    <defs>
        <linearGradient id="_Linear1" x1="0" y1="0" x2="1" y2="0" gradientUnits="userSpaceOnUse" gradientTransform="matrix(916.411,1587.19,-1587.19,916.411,243.961,483.073)"><stop offset="0" style="stop-color:rgb(131,36,179);stop-opacity:1"/><stop offset="0.5" style="stop-color:rgb(122,27,172);stop-opacity:1"/><stop offset="1" style="stop-color:rgb(98,17,151);stop-opacity:1"/></linearGradient>
    </defs>
</svg>
